X: 3
T:The Mound
M:9/8
L:1/8
Q:240
C:Mits Ota
K:B minor
|: BFD c3 B3 |  BFD ced cBA | BFD c3 B3 | BFD fgf edc :|!
|: def a2 f a2 f | def efg f3 | def a2 f a2 f | eag edc d3 :|!
|: Bdc Bcd cde | Bdc Bcd ABc |Bdc Bcd cde |fgf edc BcA :|
